X:1126
T:Roudledum
N:"2nd Setting."
R:slipjig
B:O'Neill's 1126
Z:Transcribed by Michael D. Long, 1/9/99
M:9/8
L:1/8
K:D
Ddd dAG FGE|Ddd dcB cde|def gec d2 B|[1 ABc dAG FGE:|[2 BAF dAF EFA||
K:G
|:BEB BAG F2 F|EBB BAF ABc|BEE BAG F2 F|[1 DED FDF ABc:|[2 DED BAF EFA|]


